!!!COM: Palestrina, Giovanni Perluigi da
!!!OPR: Missa Alma Redemptoris mater
!!!OMD: Kyrie
!!!OTL: Christe
**kern	**kern	**kern	**kern
*Ibass	*Ibass	*Icalto	*Icalto
!Bassus 2	!Bassus 1	!Altus 2	!Altus 1
*clefF4	*clefF4	*clefG2	*clefG2
*k[b-]	*k[b-]	*k[b-]	*k[b-]
*F:ion	*F:ion	*F:ion	*F:ion
*M4/2	*M4/2	*M4/2	*M4/2
=31	=31	=31	=31
0r	0r	1c	0r
.	.	2d	.
.	.	2e	.
=32	=32	=32	=32
1F	0r	1f	0r
2G	.	1e	.
2A	.	.	.
=33	=33	=33	=33
1.B-	0r	1d	1f
.	.	2r	2g
2A	.	2c	2a
=34	=34	=34	=34
1G	0r	2d	2b-
.	.	2e	2b-
2.F	.	[1f	2.a
4G	.	.	4b-
=35	=35	=35	=35
4A	0r	2f]	1cc
4B-	.	.	.
1c	.	2e	.
.	.	1d	1r
2B-	.	.	.
=36	=36	=36	=36
4A	1F	1c	1r
4B-	.	.	.
4c	.	.	.
4A	.	.	.
2B-	2G	1r	2r
2A	2A	.	2c
=37	=37	=37	=37
1G	1.B-	1r	2d
.	.	.	2e
1F	.	2r	[1f
.	2A	2c	.
=38	=38	=38	=38
2r	1G	2d	2f]
2C	.	2e	2e
2.D	2.F	[1f	1d
4E	4G	.	.
=39	=39	=39	=39
2F	4A	2f]	1c
.	4B-	.	.
2C	1c	2e	.
1G	.	1d	2r
.	2B	.	2g
=40	=40	=40	=40
2C	1c	1e	2.g
2c	.	.	.
.	.	.	4f
2.c	1r	2r	4e
.	.	.	4d
.	.	2cc	2e
4B-	.	.	.
=41	=41	=41	=41
2A	0r	2.cc	2c
4F	.	.	1f
4G	.	4b-	.
4A	.	2a	.
4B-	.	.	.
2c	.	2g	2e
=42	=42	=42	=42
2F	0r	2a	2f
2E-	.	1b-	1g
1F	.	.	.
.	.	2a	[2f
=43	=43	=43	=43
0C	2r	1g	2f]
.	2c	.	4e
.	.	.	4d
.	2.c	2r	[1e
.	.	2cc	.
.	4B-	.	.
=44	=44	=44	=44
0r	2A	2cc	2e]
.	2G	2b-	2g
.	2A	4a	2f
.	.	4g	.
.	[2B-	4f	4d
.	.	4e	4e
=45	=45	=45	=45
0r	2B-]	4d	4f
.	.	4e	4g
.	2A	1f	2a
.	1G	.	2b-
.	.	2e	2b-
=46	=46	=46	=46
1r	2F	2f	2a
.	2A	4e	2cc
.	.	4d	.
2r	2.A	1e	2.cc
2c	.	.	.
.	4G	.	4b-
=47	=47	=47	=47
2.c	2F	2r	2a
.	2E	2g	2g
4B-	.	.	.
2A	2F	2f	2a
2G	2G	2e	2b-
=48	=48	=48	=48
2A	2F	2.f	2a
2B-	2BB-	.	2.f
.	.	4g	.
1A	1F	4a	.
.	.	4b-	4e
.	.	[2cc	2c
=49	=49	=49	=49
1G	0r	2cc]	1d
.	.	2b	.
2r	.	2cc	1c
2A	.	2cc	.
=50	=50	=50	=50
2.A	2r	2.cc	1e
.	2c	.	.
4G	.	4b-	.
2F	2.c	2a	2f
2E	.	2g	2g
.	4B-	.	.
=51	=51	=51	=51
2F	2A	2a	2f
2G	2G	2b-	2e
2F	2A	2a	2f
2BB-	[2B-	[2g	2d
=52	=52	=52	=52
0C	2B-]	2g]	1c
.	2A	1f	.
.	1G	.	2r
.	.	2e	2cc
=53	=53	=53	=53
1F	2F	1f	2.cc
.	2c	.	.
.	.	.	4b-
1r	2.c	2r	2a
.	.	2cc	2g
.	4B-	.	.
=54	=54	=54	=54
2r	2.A	2.cc	2a
2c	.	.	2e
.	4G	4b-	.
2.c	2F	2a	2f
.	2E	2g	2g
4B-	.	.	.
=55	=55	=55	=55
2A	2F	2a	2f
2G	2G	2b-	2e
2A	2F	2a	2f
[2B-	2BB-	[2g	2d
=56	=56	=56	=56
2B-]	0C	2g]	2e
2A	.	1f	2f
1G	.	.	1g
.	.	2e	.
=57	=57	=57	=57
0F	0F	0f	0a
==	==	==	==
*-	*-	*-	*-
!!!CDT: 1525/^1526/-1594/2/2
!!!OCY: Italia
!!!AGN: Mass (Paraphrase)
!!!AST: renaissance, vocal
!!!ASW: Antiphon
!!!PWK: Masses, Book 11
!!!RNB: Cadence finals: C
!!!YOR: Le Opere Complete, v. 28, p. 148
!!!YOO: Rome, Italy: Fratelli Scalera
!!!END: 1992//
!!!EED: John Miller
!!!YEC: Copyright 2000, John Miller
!!!YEN: United States of America
!!!YEM: Rights to all derivative electronic formats reserved.
!!!YEM: Refer to licensing agreement for further details.
!!!YEM: This file must be accompanied by the licensing agreement.
!!!YEM: A copy of the licensing agreement may be found at http://www.music-cog.ohio-state.edu/HumdrumDatabases/Palestrina/license.txt
!!!EMD: converted to Humdrum by Bret Aarden
